!!!COM: Music21
!!!OTL: Pasacalles
!!!OMV: pezas_pasacorredoiras_pasacalles-5_pasacalles-partitura.musicxml
**kern
*I"Bagpipes
*I'Bag
*clefG^2
*k[]
*M2/4
=1
!LO:TX:a:t=Andante
*MM105
!LO:TX:a:t=[quarter]=105
4r
8.cccL
16bbJk
=||
8aaL
8ggJ
8aaL
8bbJ
=
8cccL
8ggJ
8.cccL
16bbJk
=
8aaL
8ggJ
8ffL
8bbJ
=
4ffT
8.cccL
16bbJk
=
8aaL
8ggJ
8aaL
8bbJ
=
8cccL
8ggJ
8ccL
8ddJ
=
8ee-XL
8ddJ
8ccL
8bJ
=
4cc
8.cccL
16bbJk
!!linebreak:original
=||
8aaL
8ggJ
8aaL
8bbJ
=
8cccL
8ggJ
8.cccL
16bbJk
=
8aaL
8ggJ
8ffL
8bbJ
=
4ffT
8.cccL
16bbJk
=
8aaL
8ggJ
8aaL
8bbJ
=
8cccL
8ggJ
8ccL
8ddJ
=
8ee-XL
8ddJ
8ccL
8bJ
!!linebreak:original
=
4cc
8ccL
8ddJ
=||
8eeL
8ddJ
8ffL
8eeJ
=
4ddT
8ddL
8eeJ
=
8ffL
8eeJ
8aaL
8ggJ
=
4eet
8ccL
8eeJ
=
8eeL
8ddJ
8ffL
8eeJ
=||
*M3/4
4ddT
4aa
8ffL
8ffJ
=||
*M2/4
8aaL
8ddJ
8ffL
8eeJ
=
4cc
8ccL
8ddJ
!!linebreak:original
=||
8eeL
8ddJ
8ffL
8eeJ
=
4ddT
8ddL
8eeJ
=
8ffL
8eeJ
8aaL
8ggJ
=
4eet
8ccL
8eeJ
=
8eeL
8ddJ
8ffL
8eeJ
=||
*M3/4
4ddT
4aa
8ffL
8ffJ
=||
*M2/4
8aaL
8ddJ
8ffL
8eeJ
!!linebreak:original
=
4cc
8.cccL
16bbJk
==
*-
